!!!SOCIAL_FUNCTION:	love songs
!!!PDT:	1913
!!!OTL: No_159_Love_Song.krn
!!!REG: Great_Lakes
!!!LANG: Non-Tone
!!!LING_GROUP: Algonquin
**kern
*staff1
=1-
*clefG2
*k[f#c#]
*M2/4
4f#/
8.f#/L
16f#/Jk
=2
2f#/
=3
4f#/
(16e/LK
8B/)
16B/Jk
=4
2B/
=5
4f#/
8.e/L
16d/Jk
=6
2e/
=7
4f#/
(16e/LK
8B/)
16B/Jk
=8
2B/
=9
4d/
(16f#/LK
8B/)
16B/Jk
*clefF4
=10
*clefF4
4.B\
8F#\
=11
4A\
8.F#\L
16E\Jk
=12
2D\
=13
4F#\
8.F#\L
16F#\Jk
=14
2E\
=15
4F#\
8.E/L
16BB/Jk
=16
2BB/
==
*-
